!!! OTL: Berkowitz229
!!! Chapter: 1
!!! Section: II
!!! Page: 53
!!! Mode: 
!!! Encoder: DJB
**kern
*staff1
*I"Piano
=1-
*clefG2
*k[]
*C:
*met(c|)
*M2/2
4c/
4B/
2c/
=2
4e/
4d#/
2e/
=3
4g/
4f#/
4g/
4cc\
=4
2b\
4r
4g/
=5
4a/
4g#/
2a/
=6
4g/
4f#/
2g/
=7
4f/
4e/
4d/
4c#/
=8
4d/
4g/
2c/
==
*-
